X:234
T: Es steht ein Schloá in sterreich (13f), S. 61
N: T0122
O: Luxemburg
S: Singendes Volk, Esch-Alzette 1937 posth.]
N: RODERSHAUSEN; gesungen von J. Haas 1930;
N: mitgeteilt von hhh Josef Bour, Lehrer daselbst
R: "erzhlendes Lied"]
M: 3/4
L: 1/16
K: C
G2 | G2c2E6E2 | E2G2F6
F2 | G2A2A6E2 | G2F2z6
G2 | G2B2d6F2 | E2G2c4
e4 | d2c2B2A2GBA2 | G2F2z6
G2 | G2B2d6F2 | E2G2c4
e4 | d2c2B2A2G2F2 | F2E2z6

